src/assets/lock-settings.svg

<svg width="16" height="21" viewBox="0 0 16 21" fill="none" xmlns="http://www.w3.org/2000/svg">
<path d="M2 21C1.45 21 0.979167 20.8042 0.5875 20.4125C0.195833 20.0208 0 19.55 0 19V9C0 8.45 0.195833 7.97917 0.5875 7.5875C0.979167 7.19583 1.45 7 2 7H3V5C3 3.61667 3.4875 2.4375 4.4625 1.4625C5.4375 0.4875 6.61667 0 8 0C9.38333 0 10.5625 0.4875 11.5375 1.4625C12.5125 2.4375 13 3.61667 13 5V7H14C14.55 7 15.0208 7.19583 15.4125 7.5875C15.8042 7.97917 16 8.45 16 9V19C16 19.55 15.8042 20.0208 15.4125 20.4125C15.0208 20.8042 14.55 21 14 21H2ZM2 19H14V9H2V19ZM8 16C8.55 16 9.02083 15.8042 9.4125 15.4125C9.80417 15.0208 10 14.55 10 14C10 13.45 9.80417 12.9792 9.4125 12.5875C9.02083 12.1958 8.55 12 8 12C7.45 12 6.97917 12.1958 6.5875 12.5875C6.19583 12.9792 6 13.45 6 14C6 14.55 6.19583 15.0208 6.5875 15.4125C6.97917 15.8042 7.45 16 8 16ZM5 7H11V5C11 4.16667 10.7083 3.45833 10.125 2.875C9.54167 2.29167 8.83333 2 8 2C7.16667 2 6.45833 2.29167 5.875 2.875C5.29167 3.45833 5 4.16667 5 5V7Z" fill="#1C1B1F"/>
</svg>

<svg width="16" height="21" fill="none" xmlns="http://www.w3.org/2000/svg"><path d="M2 21c-.55 0-1.02-.196-1.413-.587A1.926 1.926 0 010 19V9c0-.55.196-1.02.588-1.412A1.926 1.926 0 012 7h1V5c0-1.383.487-2.563 1.463-3.538C5.437.488 6.617 0 8 0s2.563.487 3.537 1.462C12.512 2.438 13 3.617 13 5v2h1c.55 0 1.02.196 1.412.588.392.391.588.862.588 1.412v10c0 .55-.196 1.02-.588 1.413A1.926 1.926 0 0114 21H2zm0-2h12V9H2v10zm6-3c.55 0 1.02-.196 1.412-.588.392-.391.588-.862.588-1.412 0-.55-.196-1.02-.588-1.412A1.926 1.926 0 008 12c-.55 0-1.02.196-1.412.588A1.926 1.926 0 006 14c0 .55.196 1.02.588 1.412.391.392.862.588 1.412.588zM5 7h6V5c0-.833-.292-1.542-.875-2.125A2.893 2.893 0 008 2c-.833 0-1.542.292-2.125.875A2.893 2.893 0 005 5v2z" fill="#1C1B1F"/></svg>
